outputs/icons/content/add_box_round.svg

<svg xmlns="http://www.w3.org/2000/svg" width="1200" height="1200" fill="none"><g clip-path="url(#a)"><path fill="#000" d="M950 150H250c-55.5 0-100 45-100 100v700c0 55 44.5 100 100 100h700c55 0 100-45 100-100V250c0-55-45-100-100-100M800 650H650v150c0 27.5-22.5 50-50 50s-50-22.5-50-50V650H400c-27.5 0-50-22.5-50-50s22.5-50 50-50h150V400c0-27.5 22.5-50 50-50s50 22.5 50 50v150h150c27.5 0 50 22.5 50 50s-22.5 50-50 50"/></g><defs><clipPath id="a"><path fill="#fff" d="M0 0h1200v1200H0z"/></clipPath></defs></svg>

<svg width="1200" height="1200" viewBox="0 0 1200 1200" fill="none" xmlns="http://www.w3.org/2000/svg"><g clip-path="url(#clip0_225_3320)"><path d="M950 150H250C194.5 150 150 195 150 250V950C150 1005 194.5 1050 250 1050H950C1005 1050 1050 1005 1050 950V250C1050 195 1005 150 950 150ZM800 650H650V800C650 827.5 627.5 850 600 850C572.5 850 550 827.5 550 800V650H400C372.5 650 350 627.5 350 600C350 572.5 372.5 550 400 550H550V400C550 372.5 572.5 350 600 350C627.5 350 650 372.5 650 400V550H800C827.5 550 850 572.5 850 600C850 627.5 827.5 650 800 650Z" fill="black"/></g><defs><clipPath id="clip0_225_3320"><path width="24" fill="white" d="M0 0H1200V1200H0V0z"/></clipPath></defs></svg>
